X:060
T:March TS.060
M:C
L:1/8
Q:1/4=120
S:Thomas Sands’ MS,1810,Lincolnshire
R:march
O:England;Lincolnshire
Z:vmp.Ruairidh Greig, 2011
K:D
d4A4|fedc d2″poss qu.in ms”B2|BAGF AGFE|D2D>DD2z2|
d4A4|fedcd2cd|e2fdc2B2|A2A>AA2:|
|:(A/B/c/d/)|e3f gfdc|d3fA4|B2gf eBed|d4c2″rest added”z2|
“dot added”A3B/c/ dABA|AGGFF4|EF/G/ A/B/c/d/ e/d/c/B/ AG|G3EF3A|
BBBd ccce|dddf eeeg|ffged2c2|d2d>dd2:|]

